X: 640
T: Young Bridget
C:O'Carolan
B:O'Neill's 640
Z: 1997 by John Chambers <jc@trillian.mit.edu>
N:"Slow"
M:3/4
L:1/8
K:G
(B/d/e/f/) \
| g2 c'b {b}ag | g4 (g>f) | e2 (gfed) | e2 ef (g>f) |
| ed {d}cB (A{BA}G) | ({G}F/E/F/G/) A3 G | G6 | G7/2 (c/ BA) |
| G3 A (B>^c) | d3 (d g>f) | e2 (gf) e^d | e4 ({d}cB/A/) |
| (G>A) (B>c) (de/f/) | g2 (g>b) (a>g) | f2 ~e3 d | d4 (de/f/) |
| g2 (.g.b .a.f) | g4 (f>g) | e (.g.f.e.d) | e3 f (g>f) |
| ({ef}ed) ({cd}cB) ({AB}AG) | ({G}F/E/F/G/) A3 G | G3- | G2 |]


